X:1
T:Autumn Waltz
C:David Kaynor
M:3/4
K:A
Ac d ||"A"e3 A cd | e3 A cd | ec ea ed | c4 c2|
"E7" d4 Bc | d3 B cd | ef ec dB | "A" c4 cd|
"A"e3 A cd | e3 A cd | ec ea ed | c4 c2|
"E7" d4 Bc | d3 B cd | ef ec BG | "A" A4 ce||
"A"a4 a2 | "D" a4 gf | "A" f2 e3 d| c4 c2|
"E7"B4 GA | B4 dc | (3BcB A2 B2 | "A"c4 (3efg|
"D"a4 ab | a2g2f2 | "A"e3f ed| c4 A2 | 
"E" B4 d2 | c4 B2 | "A"A6-|A4 ce|]
